X: 292
M: C
L: 1/8
K: D
fefg f2f2 | f4 a4 | f2ef gfed | e6 :|
|: cd |\
e4 e4 | e6 a2 | ABcd e2f2 | g4 a4 |\
f2ef gfed | e2A2 a3g | fagf Te3d | d6 :|

